public/static/img/flag/en.svg

<svg width="30" height="30" viewBox="0 0 30 30" fill="none" xmlns="http://www.w3.org/2000/svg">
<g clip-path="url(#clip0_136_1786)">
<path d="M1.14315 20.7523H28.8581C28.5231 21.5585 28.1206 22.3298 27.6544 23.0573H2.3469C1.8819 22.3298 1.47815 21.5585 1.14315 20.7523ZM4.15565 25.3623H25.8456C25.0058 26.2415 24.0627 27.0159 23.0369 27.6685H6.96315C5.9373 27.0159 4.9942 26.2415 4.1544 25.3623H4.15565ZM0.0431519 16.1373H29.9581C29.8994 16.9248 29.7794 17.6935 29.6044 18.4423H0.396902C0.219254 17.6843 0.100979 16.9137 0.0431519 16.1373ZM7.0144 2.2998H22.9881C24.0209 2.95073 24.9708 3.72474 25.8169 4.6048H4.18565C5.03173 3.72474 5.9816 2.95073 7.0144 2.2998ZM2.3669 6.9123H27.6344C28.1031 7.64105 28.5094 8.41355 28.8469 9.2223H1.1544C1.4919 8.41355 1.89815 7.64105 2.3669 6.9123ZM0.405652 11.521H29.5956C29.7731 12.2698 29.8956 13.0398 29.9556 13.826H0.0456518C0.106902 13.0385 0.228152 12.2698 0.405652 11.521Z" fill="white"/>
<path d="M0.398136 18.4475H29.6031C29.4156 19.2413 29.1656 20.0125 28.8581 20.7525H1.14314C0.832591 20.0057 0.583433 19.2348 0.398136 18.4475ZM6.96438 27.6688H23.0381C20.8941 29.0325 18.4373 29.8259 15.9006 29.9737H14.1031C11.5665 29.8259 9.10961 29.0325 6.96563 27.6688H6.96438ZM2.34313 23.0525H27.6581C27.1306 23.88 26.5244 24.6525 25.8506 25.3575H4.15063C3.47469 24.6497 2.86933 23.8777 2.34313 23.0525ZM1.15439 9.22126H28.8469C29.1569 9.96126 29.4081 10.7313 29.5969 11.5263H0.404386C0.593136 10.7313 0.844386 9.96126 1.15439 9.22126ZM4.18563 4.60502H25.8156C26.4944 5.31127 27.1031 6.08377 27.6344 6.91127H2.36688C2.89688 6.08377 3.50688 5.31127 4.18563 4.60502ZM0.0456363 13.8313H29.9556C30.0148 14.5988 30.0156 15.3698 29.9581 16.1375H0.0431363C-0.0143876 15.3698 -0.0135519 14.5988 0.0456363 13.8313ZM22.9869 2.30002H7.01313C9.40423 0.792716 12.1741 -0.00486336 15.0006 2.23118e-05C17.9356 2.23118e-05 20.6744 0.842522 22.9869 2.30002Z" fill="#BF0A30"/>
<path d="M0.0444244 16.1625C0.015021 15.7757 0.000427044 15.3879 0.000674481 15C0.000674481 6.71624 6.71692 0 15.0007 0C15.5069 0 16.0069 0.025 16.5007 0.0749999V16.1625H0.0444244Z" fill="#002868"/>
<path d="M0.00192137 15.1961C0.00105236 15.1019 0.00105236 15.0078 0.00192137 14.9136V14.9099C0.00192137 14.8286 0.00192137 14.7474 0.00442139 14.6674H0.0756713L0.204421 14.2924L0.323171 14.6674H0.723171L0.396921 14.9099L0.520671 15.2849L0.204421 15.0474L0.000671387 15.1974L0.00192137 15.1961ZM0.326921 11.8711C0.360671 11.7124 0.396921 11.5549 0.435671 11.3974H0.725671L0.399421 11.6299L0.523171 12.0161L0.329421 11.8699L0.326921 11.8711ZM8.75566 1.35861C8.90566 1.28861 9.05816 1.22111 9.21066 1.15861L9.23816 1.24111H9.63441L9.31691 1.47861L9.43566 1.85986L9.11441 1.61736L8.79816 1.85986L8.91691 1.47861L8.75441 1.35736L8.75566 1.35861ZM12.0882 0.859863L12.2069 1.23986H12.6069L12.2907 1.47736L12.4094 1.85861L12.0932 1.61611L11.7657 1.85861L11.8907 1.47736L11.5732 1.23986H11.9694L12.0882 0.862363V0.859863ZM12.0882 4.21361L12.2069 4.59486H12.6069L12.2907 4.83236L12.4094 5.21236L12.0932 4.97486L11.7657 5.21236L11.8907 4.83236L11.5732 4.59486H11.9694L12.0882 4.21361ZM12.0882 7.57736L12.2069 7.95861H12.6069L12.2907 8.19611L12.4094 8.57611L12.0932 8.33861L11.7657 8.57611L11.8907 8.19611L11.5732 7.95861H11.9694L12.0882 7.57736ZM12.0882 11.0111L12.2069 11.3911H12.6069L12.2907 11.6236L12.4094 12.0099L12.0932 11.7724L11.7657 12.0099L11.8907 11.6236L11.5732 11.3911H11.9694L12.0882 11.0111ZM12.0882 14.2899L12.2069 14.6661H12.6069L12.2907 14.9086L12.4094 15.2836L12.0932 15.0461L11.7657 15.2836L11.8907 14.9086L11.5732 14.6661H11.9694L12.0882 14.2911V14.2899ZM9.11316 4.21486L9.23691 4.59611H9.63316L9.31566 4.83361L9.43441 5.21361L9.11316 4.97611L8.79691 5.21361L8.91566 4.83361L8.59816 4.59611H9.00066L9.11441 4.21486H9.11316ZM9.11316 7.57861L9.23691 7.95986H9.63316L9.31566 8.19736L9.43441 8.57736L9.11316 8.33986L8.79691 8.57736L8.91566 8.19736L8.59816 7.95986H9.00066L9.11441 7.57861H9.11316ZM9.11316 11.0124L9.23691 11.3924H9.63316L9.31566 11.6249L9.43441 12.0111L9.11316 11.7736L8.79691 12.0111L8.91566 11.6249L8.59816 11.3924H9.00066L9.11441 11.0124H9.11316ZM9.11316 14.2911L9.23691 14.6674H9.63316L9.31566 14.9099L9.43441 15.2849L9.11316 15.0474L8.79691 15.2849L8.91566 14.9099L8.59816 14.6674H9.00066L9.11441 14.2924L9.11316 14.2911ZM6.14692 4.21486L6.26567 4.59611H6.66067L6.34442 4.83361L6.46817 5.21361L6.14692 4.97611L5.81942 5.21361L5.94442 4.83361L5.61692 4.59611H6.01692L6.14692 4.21486ZM6.14692 7.57861L6.26567 7.95986H6.66067L6.34442 8.19736L6.46817 8.57736L6.14692 8.33986L5.81942 8.57736L5.94442 8.19736L5.61692 7.95986H6.01692L6.14692 7.57861ZM6.14692 11.0124L6.26567 11.3924H6.66067L6.34442 11.6249L6.46817 12.0111L6.14692 11.7736L5.81942 12.0111L5.94442 11.6249L5.61692 11.3924H6.01692L6.14692 11.0124ZM6.14692 14.2911L6.26567 14.6674H6.66067L6.34442 14.9099L6.46817 15.2849L6.14692 15.0474L5.81942 15.2849L5.94442 14.9099L5.61692 14.6674H6.01692L6.14692 14.2924V14.2911ZM3.17317 7.57861L3.29692 7.95986H3.69692L3.37192 8.19736L3.49442 8.57736L3.16942 8.33986L2.85192 8.57736L2.97567 8.19736L2.64942 7.95986H3.04942L3.17442 7.57861H3.17317ZM3.17317 11.0124L3.29692 11.3924H3.69692L3.37192 11.6249L3.49442 12.0111L3.16942 11.7736L2.85192 12.0111L2.97567 11.6249L2.64942 11.3924H3.04942L3.17442 11.0124H3.17317ZM3.17317 14.2911L3.29692 14.6674H3.69692L3.37192 14.9099L3.49442 15.2849L3.16942 15.0474L2.85192 15.2849L2.97567 14.9099L2.64942 14.6674H3.04942L3.17442 14.2924L3.17317 14.2911ZM13.6019 2.53736L13.7207 2.91861H14.1207L13.8044 3.15611L13.9232 3.53736L13.6019 3.29986L13.2744 3.53736L13.3994 3.15611L13.0819 2.91861H13.4782L13.6019 2.53736ZM13.6019 6.00486L13.7207 6.38611H14.1207L13.8044 6.62361L13.9232 7.00486L13.6019 6.76736L13.2744 7.00486L13.3994 6.62361L13.0819 6.38611H13.4782L13.6019 6.00486ZM13.5719 9.39861L13.6907 9.77986H14.0907L13.7744 10.0174L13.8932 10.3986L13.5769 10.1611L13.2557 10.3986L13.3744 10.0174L13.0569 9.77986H13.4532L13.5719 9.39861ZM13.5419 12.7586L13.6657 13.1386H14.0619L13.7394 13.3761L13.8582 13.7574L13.5419 13.5199L13.2207 13.7574L13.3394 13.3761L13.0232 13.1386H13.4182L13.5432 12.7586H13.5419ZM10.6294 2.53736L10.7469 2.91861H11.1469L10.8307 3.15611L10.9494 3.53736L10.6282 3.29986L10.3019 3.53736L10.4257 3.15611L10.1044 2.91861H10.4994L10.6282 2.53736H10.6294ZM10.6294 6.00486L10.7469 6.38611H11.1469L10.8307 6.62361L10.9494 7.00486L10.6282 6.76736L10.3019 7.00486L10.4257 6.62361L10.1044 6.38611H10.4994L10.6282 6.00486H10.6294ZM10.5969 9.39986L10.7219 9.78111H11.1169L10.8007 10.0186L10.9244 10.3999L10.5969 10.1624L10.2807 10.3999L10.3994 10.0186L10.0832 9.78111H10.4782L10.5969 9.39986ZM10.5682 12.7599L10.6919 13.1399H11.0869L10.7657 13.3774L10.8894 13.7586L10.5632 13.5211L10.2407 13.7586L10.3594 13.3774L10.0432 13.1399H10.4394L10.5682 12.7599ZM7.66067 2.41861L7.78316 2.79986H8.17941L7.85817 3.03736L7.98191 3.41861L7.65566 3.18111L7.33817 3.41861L7.45692 3.03736L7.13567 2.79986H7.53192L7.66067 2.41861ZM7.66067 5.88611L7.78316 6.26736H8.17941L7.85817 6.50486L7.98191 6.88611L7.65566 6.64861L7.33817 6.88611L7.45692 6.50486L7.13567 6.26736H7.53192L7.66067 5.88611ZM7.63066 9.27986L7.75441 9.66111H8.14942L7.83317 9.89861L7.95691 10.2799L7.63066 10.0424L7.30442 10.2799L7.42816 9.89861L7.10567 9.66111H7.50191L7.63066 9.27986ZM7.60067 12.6399L7.72441 13.0199H8.12066L7.80316 13.2524L7.92816 13.6386L7.60067 13.4011L7.27942 13.6386L7.39817 13.2524L7.08192 13.0199H7.47691L7.60191 12.6399H7.60067ZM4.68817 5.84736L4.81067 6.22861H5.21067L4.88567 6.46611L5.00817 6.84611L4.68317 6.60861L4.36067 6.84611L4.48442 6.46611L4.15817 6.22861H4.55817L4.68692 5.84736H4.68817ZM4.65567 9.24986L4.78067 9.62486H5.18067L4.85442 9.86236L4.97817 10.2436L4.65067 10.0061L4.33442 10.2436L4.45317 9.86236L4.13192 9.62486H4.53192L4.65692 9.24986H4.65567ZM4.62692 12.6036L4.75067 12.9849H5.15067L4.82442 13.2224L4.94817 13.6024L4.62192 13.3649L4.30442 13.6024L4.42942 13.2224L4.10192 12.9849H4.50192L4.62692 12.6036ZM1.68317 9.19111L1.80692 9.57111H2.20692L1.88192 9.80861L2.00442 10.1899L1.67817 9.94736L1.36192 10.1899L1.48067 9.80861L1.15817 9.57111H1.55817L1.68317 9.18986V9.19111ZM1.65817 12.5436L1.77692 12.9249H2.17692L1.85192 13.1624L1.97442 13.5436L1.65317 13.3061L1.32692 13.5436L1.45067 13.1624L1.12442 12.9249H1.52442L1.65817 12.5436ZM15.0607 0.862363L15.1794 1.24236H15.5794L15.2582 1.47986L15.3769 1.86111L15.0607 1.61861L14.7344 1.86111L14.8582 1.47986L14.5419 1.24236H14.9369L15.0607 0.862363ZM15.0607 4.21611L15.1794 4.59736H15.5794L15.2582 4.83486L15.3769 5.21486L15.0607 4.97736L14.7344 5.21486L14.8582 4.83486L14.5419 4.59736H14.9369L15.0607 4.21611ZM15.0607 7.57986L15.1794 7.96111H15.5794L15.2582 8.19861L15.3769 8.57861L15.0607 8.34111L14.7344 8.57861L14.8582 8.19861L14.5419 7.96111H14.9369L15.0607 7.57986ZM15.0607 11.0136L15.1794 11.3936H15.5794L15.2582 11.6261L15.3769 12.0124L15.0607 11.7749L14.7344 12.0124L14.8582 11.6261L14.5419 11.3936H14.9369L15.0607 11.0136ZM15.0607 14.2924L15.1794 14.6686H15.5794L15.2582 14.9111L15.3769 15.2861L15.0607 15.0486L14.7344 15.2861L14.8582 14.9111L14.5419 14.6686H14.9369L15.0607 14.2936V14.2924Z" fill="white"/>
</g>
<defs>
<clipPath id="clip0_136_1786">
<rect width="30" height="30" fill="white"/>
</clipPath>
</defs>
</svg>

<svg width="30" height="30" fill="none" xmlns="http://www.w3.org/2000/svg"><g clip-path="url(#a)"><path d="M1.143 20.752h27.715a14.787 14.787 0 0 1-1.204 2.305H2.347a14.89 14.89 0 0 1-1.204-2.305Zm3.013 4.61h21.69c-.84.88-1.783 1.654-2.81 2.307H6.964a15.07 15.07 0 0 1-2.809-2.307h.002ZM.043 16.137h29.915a15.025 15.025 0 0 1-.354 2.305H.397a14.976 14.976 0 0 1-.354-2.305ZM7.014 2.3h15.974a15.072 15.072 0 0 1 2.829 2.305H4.186A15.071 15.071 0 0 1 7.014 2.3ZM2.367 6.912h25.267c.47.729.875 1.502 1.213 2.31H1.154c.338-.808.744-1.58 1.213-2.31ZM.406 11.521h29.19c.177.749.3 1.519.36 2.305H.046c.06-.787.182-1.556.36-2.305Z" fill="#fff"/><path d="M.398 18.448h29.205a14.986 14.986 0 0 1-.745 2.305H1.143c-.31-.747-.56-1.518-.745-2.305Zm6.566 9.22h16.074a14.916 14.916 0 0 1-7.137 2.306h-1.798a14.916 14.916 0 0 1-7.137-2.305h-.002Zm-4.62-4.616h25.314a15.08 15.08 0 0 1-1.807 2.306H4.15a15.067 15.067 0 0 1-1.808-2.306Zm-1.19-13.83h27.693c.31.74.561 1.51.75 2.304H.404c.19-.795.44-1.565.75-2.305Zm3.032-4.617h21.63a15.1 15.1 0 0 1 1.818 2.306H2.367c.53-.827 1.14-1.6 1.819-2.306Zm-4.14 9.226h29.91c.059.768.06 1.539.002 2.306H.043a15.212 15.212 0 0 1 .003-2.306ZM22.986 2.3H7.014A14.93 14.93 0 0 1 15.001 0c2.935 0 5.673.843 7.986 2.3Z" fill="#BF0A30"/><path d="M.044 16.163A15.21 15.21 0 0 1 .001 15C0 6.716 6.717 0 15 0c.506 0 1.006.025 1.5.075v16.087H.044Z" fill="#002868"/><path d="M.002 15.196v-.286c0-.081 0-.163.002-.243h.072l.128-.375.12.375h.4l-.327.243.124.375-.317-.238-.203.15Zm.325-3.325c.034-.159.07-.316.109-.474h.29l-.327.233.124.386-.194-.146-.002.001ZM8.756 1.36c.15-.07.302-.138.455-.2l.027.082h.396l-.317.238.119.38-.322-.242-.316.243.119-.381-.163-.122.002.002Zm3.332-.5.119.38h.4l-.316.238.118.382-.316-.243-.327.243.125-.382-.318-.237h.396l.12-.378V.86Zm0 3.355.119.38h.4l-.316.238.118.38-.316-.237-.327.237.125-.38-.318-.237h.396l.12-.381Zm0 3.363.119.382h.4l-.316.237.118.38-.316-.237-.327.237.125-.38-.318-.237h.396l.12-.382Zm0 3.434.119.38h.4l-.316.233.118.386-.316-.238-.327.238.125-.386-.318-.233h.396l.12-.38Zm0 3.279.119.376h.4l-.316.243.118.375-.316-.238-.327.238.125-.375-.318-.243h.396l.12-.375v-.001ZM9.113 4.215l.124.381h.396l-.317.238.118.38-.32-.238-.317.238.119-.38-.318-.238h.403l.113-.381Zm0 3.364.124.38h.396l-.317.238.118.38-.32-.237-.317.237.119-.38-.318-.237h.403l.113-.381Zm0 3.433.124.38h.396l-.317.233.118.386-.32-.237-.317.237.119-.386-.318-.233h.403l.113-.38Zm0 3.28.124.375h.396l-.317.243.118.375-.32-.238-.317.238.119-.375-.318-.243h.403l.113-.375ZM6.147 4.214l.119.381h.395l-.317.238.124.38-.321-.238-.328.238.125-.38-.327-.238h.4l.13-.381Zm0 3.364.119.38h.395l-.317.238.124.38-.321-.237-.328.237.125-.38-.327-.237h.4l.13-.381Zm0 3.433.119.38h.395l-.317.233.124.386-.321-.237-.328.237.125-.386-.327-.233h.4l.13-.38Zm0 3.28.119.375h.395l-.317.243.124.375-.321-.238-.328.238.125-.375-.327-.243h.4l.13-.375ZM3.173 7.578l.124.38h.4l-.325.238.122.38-.325-.237-.317.237.124-.38-.327-.237h.4l.125-.381Zm0 3.433.124.38h.4l-.325.233.122.386-.325-.237-.317.237.124-.386-.327-.233h.4l.125-.38Zm0 3.28.124.375h.4l-.325.243.122.375-.325-.238-.317.238.124-.375-.327-.243h.4l.125-.375ZM13.602 2.536l.119.382h.4l-.317.237.12.381-.322-.237-.328.237.125-.38-.317-.238h.396l.124-.382Zm0 3.468.119.381h.4l-.317.238.12.38-.322-.237-.328.238.125-.381-.317-.238h.396l.124-.381Zm-.03 3.394.119.38h.4l-.317.238.12.382-.317-.238-.321.238.118-.382-.317-.237h.396l.119-.381Zm-.03 3.36.124.38h.396l-.323.237.12.381-.317-.237-.321.237.118-.38-.316-.238h.395l.125-.38h-.001ZM10.629 2.537l.118.382h.4l-.316.237.118.381-.32-.237-.327.237.124-.38-.322-.238h.395l.13-.382Zm0 3.468.118.381h.4l-.316.238.118.38-.32-.237-.327.238.124-.381-.322-.238h.395l.13-.381ZM10.597 9.4l.125.381h.395l-.316.238.123.38-.327-.237-.316.238.118-.381-.316-.238h.395l.119-.381Zm-.029 3.36.124.38h.395l-.321.237.123.382-.326-.238-.322.238.118-.382-.316-.237h.396l.13-.38ZM7.661 2.419l.122.38h.396l-.32.238.123.382-.326-.238-.318.238.119-.382-.321-.237h.396l.129-.381Zm0 3.467.122.381h.396l-.32.238.123.381-.326-.237-.318.237.119-.381-.321-.238h.396l.129-.38ZM7.63 9.28l.123.381h.395l-.316.238.124.38-.326-.237-.327.238.124-.381-.322-.238h.396l.129-.381Zm-.03 3.36.123.38h.397l-.318.232.125.387-.327-.238-.322.238.12-.387-.317-.232h.395l.125-.38H7.6ZM4.688 5.847l.123.382h.4l-.325.237.122.38-.325-.237-.322.237.123-.38-.326-.237h.4l.129-.382h.001ZM4.656 9.25l.125.375h.4l-.327.237.124.382-.327-.238-.317.238.12-.382-.322-.237h.4l.125-.375h-.001Zm-.03 3.354.125.38h.4l-.327.238.124.38-.326-.237-.318.237.125-.38-.327-.237h.4l.125-.381ZM1.684 9.19l.124.38h.4l-.325.238.122.38-.326-.242-.316.243.119-.381-.323-.238h.4l.125-.381v.001Zm-.025 3.353.119.38h.4l-.325.238.122.382-.32-.238-.327.238.124-.382-.327-.237h.4l.134-.381ZM15.061.862l.118.38h.4l-.32.238.118.381-.316-.242-.327.242.124-.381-.316-.238h.395l.124-.38Zm0 3.354.118.381h.4l-.32.238.118.38-.316-.238-.327.238.124-.38-.316-.238h.395l.124-.38Zm0 3.364.118.381h.4l-.32.238.118.38-.316-.238-.327.238.124-.38-.316-.238h.395l.124-.381Zm0 3.434.118.38h.4l-.32.232.118.386-.316-.237-.327.237.124-.386-.316-.232h.395l.124-.38Zm0 3.278.118.377h.4l-.32.242.118.375-.316-.237-.327.237.124-.375-.316-.242h.395l.124-.375v-.002Z" fill="#fff"/></g><defs><clipPath id="a"><path fill="#fff" d="M0 0h30v30H0z"/></clipPath></defs></svg>
